assets/info.svg

<svg fill="none" height="20" viewBox="0 0 20 20" width="20" xmlns="http://www.w3.org/2000/svg" xmlns:xlink="http://www.w3.org/1999/xlink"><mask id="a" fill="#000" height="20" maskUnits="userSpaceOnUse" width="20" x="0" y="0"><path d="m0 0h20v20h-20z" fill="#fff"/><path clip-rule="evenodd" d="m15.4592 15.2774h.0001c2.935-2.9851 2.8935-7.80228-.0906-10.73733-2.9876-2.93506-7.80315-2.89271-10.73652.08978-.03134.0305-.06183.06099-.09233.09233-2.93421 2.98504-2.89355 7.80222.09149 10.73732 1.47642 1.451 3.39924 2.1744 5.32291 2.1744 1.96515 0 3.93125-.7564 5.41525-2.2659.0305-.0296.0601-.0601.0897-.0906zm-14.4592-5.2774c0-4.96292 4.03708-9 9-9 4.9621 0 9 4.03708 9 9 0 4.9621-4.0379 9-9 9-4.96292 0-9-4.0379-9-9zm8.99972-4.86255c-.63953 0-1.15878.5201-1.15878 1.15878s.51925 1.15877 1.15878 1.15877c.63948 0 1.15878-.52009 1.15878-1.15877s-.5193-1.15878-1.15878-1.15878zm-.00003 3.67713c-.52179 0-.94616.42437-.94616.94616v4.16926c0 .5218.42437.9461.94616.9461.52181 0 .94621-.4243.94621-.9461v-4.16926c0-.52179-.4244-.94616-.94621-.94616z" fill="#000" fill-rule="evenodd"/></mask><g fill="#191919"><path clip-rule="evenodd" d="m15.4592 15.2774h.0001c2.935-2.9851 2.8935-7.80228-.0906-10.73733-2.9876-2.93506-7.80315-2.89271-10.73652.08978-.03134.0305-.06183.06099-.09233.09233-2.93421 2.98504-2.89355 7.80222.09149 10.73732 1.47642 1.451 3.39924 2.1744 5.32291 2.1744 1.96515 0 3.93125-.7564 5.41525-2.2659.0305-.0296.0601-.0601.0897-.0906zm-14.4592-5.2774c0-4.96292 4.03708-9 9-9 4.9621 0 9 4.03708 9 9 0 4.9621-4.0379 9-9 9-4.96292 0-9-4.0379-9-9zm8.99972-4.86255c-.63953 0-1.15878.5201-1.15878 1.15878s.51925 1.15877 1.15878 1.15877c.63948 0 1.15878-.52009 1.15878-1.15877s-.5193-1.15878-1.15878-1.15878zm-.00003 3.67713c-.52179 0-.94616.42437-.94616.94616v4.16926c0 .5218.42437.9461.94616.9461.52181 0 .94621-.4243.94621-.9461v-4.16926c0-.52179-.4244-.94616-.94621-.94616z" fill-rule="evenodd"/><path d="m15.4593 15.2774-.0713-.0701-.0014.0014zm-.0001 0 .0717.0697.001-.001zm-.0905-10.73733.0701-.0713-.0001-.00004zm-10.73652.08978.06976.07169.00154-.00157zm-.09233.09233.07132.0701.00036-.00036zm.09149 10.73732-.07012.0713h.00002zm10.73816-.0915-.0697-.0717-.0016.0016zm.0171-.1593-.0001.0001.1454.1373.0001-.0001zm-.0881-10.59734c2.9449 2.89635 2.9858 7.65024.0895 10.59594l.1426.1402c2.9738-3.0244 2.9317-7.90496-.0918-10.87873zm-10.59502.08861c2.89464-2.94312 7.64692-2.98495 10.59512-.08857l.1401-.14267c-3.0269-2.97374-7.90572-2.93086-10.87781.091zm-.09195.09195c.02985-.03069.0597-.06054.09039-.09039l-.13947-.14335c-.032.03113-.06314.06227-.09427.09427zm.08992 10.59628c-2.94566-2.8963-2.98578-7.65026-.09028-10.59592l-.14263-.1402c-2.97292 3.02442-2.93173 7.90492.09268 10.87872zm5.2528 2.1457c-1.8986 0-3.7959-.7139-5.25282-2.1457l-.14019.1426c1.49593 1.4702 3.44427 2.2031 5.39301 2.2031zm5.34395-2.236c-1.4644 1.4895-3.4044 2.236-5.34395 2.236v.2c1.99075 0 3.98285-.7663 5.48655-2.2958zm.0893-.0902c-.0298.0307-.0584.0601-.0877.0886l.1394.1434c.0317-.0308.0623-.0622.0917-.0926zm-5.3875-14.3077c-5.01815 0-9.1 4.08185-9.1 9.1h.2c0-4.90769 3.99231-8.9 8.9-8.9zm9.1 9.1c0-5.01815-4.0827-9.1-9.1-9.1v.2c4.9068 0 8.9 3.99232 8.9 8.9zm-9.1 9.1c5.0173 0 9.1-4.0827 9.1-9.1h-.2c0 4.9068-3.9932 8.9-8.9 8.9zm-9.1-9.1c0 5.0173 4.08185 9.1 9.1 9.1v-.2c-4.90768 0-8.9-3.9932-8.9-8.9zm8.04094-3.70377c0-.5835.47453-1.05878 1.05878-1.05878v-.2c-.69481 0-1.25878.56491-1.25878 1.25878zm1.05878 1.05877c-.58425 0-1.05878-.47527-1.05878-1.05877h-.2c0 .69386.56397 1.25877 1.25878 1.25877zm1.05878-1.05877c0 .5835-.4745 1.05877-1.05878 1.05877v.2c.69478 0 1.25878-.56491 1.25878-1.25877zm-1.05878-1.05878c.58428 0 1.05878.47528 1.05878 1.05878h.2c0-.69387-.564-1.25878-1.25878-1.25878zm-.84619 4.52329c0-.46656.3796-.84616.84616-.84616v-.2c-.57701 0-1.04616.46914-1.04616 1.04616zm0 4.16926v-4.16926h-.2v4.16926zm.84616.8461c-.46656 0-.84616-.3796-.84616-.8461h-.2c0 .577.46915 1.0461 1.04616 1.0461zm.84621-.8461c0 .4665-.3796.8461-.84621.8461v.2c.57701 0 1.04621-.4691 1.04621-1.0461zm0-4.16926v4.16926h.2v-4.16926zm-.84621-.84616c.46661 0 .84621.3796.84621.84616h.2c0-.57702-.4692-1.04616-1.04621-1.04616z" mask="url(#a)"/></g></svg>

<svg width="20" height="20" viewBox="0 0 20 20" fill="none" xmlns="http://www.w3.org/2000/svg">
<mask id="path-1-outside-1_4418_75024" maskUnits="userSpaceOnUse" x="0" y="0" width="20" height="20" fill="black">
<rect fill="white" width="20" height="20"/>
<path fill-rule="evenodd" clip-rule="evenodd" d="M15.4592 15.2774L15.4593 15.2774C18.3943 12.2923 18.3528 7.47512 15.3687 4.54007C12.3811 1.60501 7.56555 1.64736 4.63218 4.62985C4.60084 4.66035 4.57035 4.69084 4.53985 4.72218C1.60564 7.70722 1.6463 12.5244 4.63134 15.4595C6.10776 16.9105 8.03058 17.6339 9.95425 17.6339C11.9194 17.6339 13.8855 16.8775 15.3695 15.368C15.4 15.3384 15.4296 15.3079 15.4592 15.2774ZM1 10C1 5.03708 5.03708 1 10 1C14.9621 1 19 5.03708 19 10C19 14.9621 14.9621 19 10 19C5.03708 19 1 14.9621 1 10ZM9.99972 5.13745C9.36019 5.13745 8.84094 5.65755 8.84094 6.29623C8.84094 6.93491 9.36019 7.455 9.99972 7.455C10.6392 7.455 11.1585 6.93491 11.1585 6.29623C11.1585 5.65755 10.6392 5.13745 9.99972 5.13745ZM9.99969 8.81458C9.4779 8.81458 9.05353 9.23895 9.05353 9.76074V13.93C9.05353 14.4518 9.4779 14.8761 9.99969 14.8761C10.5215 14.8761 10.9459 14.4518 10.9459 13.93V9.76074C10.9459 9.23895 10.5215 8.81458 9.99969 8.81458Z"/>
</mask>
<path fill-rule="evenodd" clip-rule="evenodd" d="M15.4592 15.2774L15.4593 15.2774C18.3943 12.2923 18.3528 7.47512 15.3687 4.54007C12.3811 1.60501 7.56555 1.64736 4.63218 4.62985C4.60084 4.66035 4.57035 4.69084 4.53985 4.72218C1.60564 7.70722 1.6463 12.5244 4.63134 15.4595C6.10776 16.9105 8.03058 17.6339 9.95425 17.6339C11.9194 17.6339 13.8855 16.8775 15.3695 15.368C15.4 15.3384 15.4296 15.3079 15.4592 15.2774ZM1 10C1 5.03708 5.03708 1 10 1C14.9621 1 19 5.03708 19 10C19 14.9621 14.9621 19 10 19C5.03708 19 1 14.9621 1 10ZM9.99972 5.13745C9.36019 5.13745 8.84094 5.65755 8.84094 6.29623C8.84094 6.93491 9.36019 7.455 9.99972 7.455C10.6392 7.455 11.1585 6.93491 11.1585 6.29623C11.1585 5.65755 10.6392 5.13745 9.99972 5.13745ZM9.99969 8.81458C9.4779 8.81458 9.05353 9.23895 9.05353 9.76074V13.93C9.05353 14.4518 9.4779 14.8761 9.99969 14.8761C10.5215 14.8761 10.9459 14.4518 10.9459 13.93V9.76074C10.9459 9.23895 10.5215 8.81458 9.99969 8.81458Z" fill="#191919"/>
<path d="M15.4593 15.2774L15.388 15.2073L15.3866 15.2087L15.4593 15.2774ZM15.4592 15.2774L15.5309 15.3471L15.5319 15.3461L15.4592 15.2774ZM15.3687 4.54007L15.4388 4.46877L15.4387 4.46873L15.3687 4.54007ZM4.63218 4.62985L4.70194 4.70154L4.70348 4.69997L4.63218 4.62985ZM4.53985 4.72218L4.61117 4.79228L4.61153 4.79192L4.53985 4.72218ZM4.63134 15.4595L4.56122 15.5308L4.56124 15.5308L4.63134 15.4595ZM15.3695 15.368L15.2998 15.2963L15.2982 15.2979L15.3695 15.368ZM15.3866 15.2087L15.3865 15.2088L15.5319 15.3461L15.532 15.346L15.3866 15.2087ZM15.2985 4.61136C18.2434 7.50771 18.2843 12.2616 15.388 15.2073L15.5306 15.3475C18.5044 12.3231 18.4623 7.44254 15.4388 4.46877L15.2985 4.61136ZM4.70348 4.69997C7.59812 1.75685 12.3504 1.71502 15.2986 4.6114L15.4387 4.46873C12.4118 1.49499 7.53298 1.53787 4.56089 4.55973L4.70348 4.69997ZM4.61153 4.79192C4.64138 4.76123 4.67123 4.73138 4.70192 4.70153L4.56245 4.55818C4.53045 4.58931 4.49931 4.62045 4.46818 4.65245L4.61153 4.79192ZM4.70145 15.3882C1.75579 12.4919 1.71567 7.73794 4.61117 4.79228L4.46854 4.65208C1.49562 7.6765 1.53681 12.557 4.56122 15.5308L4.70145 15.3882ZM9.95425 17.5339C8.05565 17.5339 6.15835 16.82 4.70143 15.3882L4.56124 15.5308C6.05717 17.001 8.00551 17.7339 9.95425 17.7339V17.5339ZM15.2982 15.2979C13.8338 16.7874 11.8938 17.5339 9.95425 17.5339V17.7339C11.945 17.7339 13.9371 16.9676 15.4408 15.4381L15.2982 15.2979ZM15.3875 15.2077C15.3577 15.2384 15.3291 15.2678 15.2998 15.2963L15.4392 15.4397C15.4709 15.4089 15.5015 15.3775 15.5309 15.3471L15.3875 15.2077ZM10 0.9C4.98185 0.9 0.9 4.98185 0.9 10H1.1C1.1 5.09231 5.09231 1.1 10 1.1V0.9ZM19.1 10C19.1 4.98185 15.0173 0.9 10 0.9V1.1C14.9068 1.1 18.9 5.09232 18.9 10H19.1ZM10 19.1C15.0173 19.1 19.1 15.0173 19.1 10H18.9C18.9 14.9068 14.9068 18.9 10 18.9V19.1ZM0.9 10C0.9 15.0173 4.98185 19.1 10 19.1V18.9C5.09232 18.9 1.1 14.9068 1.1 10H0.9ZM8.94094 6.29623C8.94094 5.71273 9.41547 5.23745 9.99972 5.23745V5.03745C9.30491 5.03745 8.74094 5.60236 8.74094 6.29623H8.94094ZM9.99972 7.355C9.41547 7.355 8.94094 6.87973 8.94094 6.29623H8.74094C8.74094 6.99009 9.30491 7.555 9.99972 7.555V7.355ZM11.0585 6.29623C11.0585 6.87973 10.584 7.355 9.99972 7.355V7.555C10.6945 7.555 11.2585 6.99009 11.2585 6.29623H11.0585ZM9.99972 5.23745C10.584 5.23745 11.0585 5.71273 11.0585 6.29623H11.2585C11.2585 5.60236 10.6945 5.03745 9.99972 5.03745V5.23745ZM9.15353 9.76074C9.15353 9.29418 9.53313 8.91458 9.99969 8.91458V8.71458C9.42268 8.71458 8.95353 9.18372 8.95353 9.76074H9.15353ZM9.15353 13.93V9.76074H8.95353V13.93H9.15353ZM9.99969 14.7761C9.53313 14.7761 9.15353 14.3965 9.15353 13.93H8.95353C8.95353 14.507 9.42268 14.9761 9.99969 14.9761V14.7761ZM10.8459 13.93C10.8459 14.3965 10.4663 14.7761 9.99969 14.7761V14.9761C10.5767 14.9761 11.0459 14.507 11.0459 13.93H10.8459ZM10.8459 9.76074V13.93H11.0459V9.76074H10.8459ZM9.99969 8.91458C10.4663 8.91458 10.8459 9.29418 10.8459 9.76074H11.0459C11.0459 9.18372 10.5767 8.71458 9.99969 8.71458V8.91458Z" fill="#191919" mask="url(#path-1-outside-1_4418_75024)"/>
</svg>
